packages/ui-solid/icons/sun_24.svg

<svg width="24" height="24" viewBox="0 0 24 24" fill="none" xmlns="http://www.w3.org/2000/svg">
<path fill-rule="evenodd" clip-rule="evenodd" d="M12 15.45C13.9054 15.45 15.45 13.9054 15.45 12C15.45 10.0946 13.9054 8.54998 12 8.54998C10.0946 8.54998 8.55001 10.0946 8.55001 12C8.55001 13.9054 10.0946 15.45 12 15.45ZM12 17.25C14.8995 17.25 17.25 14.8995 17.25 12C17.25 9.10048 14.8995 6.74998 12 6.74998C9.10051 6.74998 6.75001 9.10048 6.75001 12C6.75001 14.8995 9.10051 17.25 12 17.25Z" fill="#007AFF"/>
<path fill-rule="evenodd" clip-rule="evenodd" d="M12 1.09998C12.4971 1.09998 12.9 1.50292 12.9 1.99998V3.73911C12.9 4.23616 12.4971 4.63911 12 4.63911C11.5029 4.63911 11.1 4.23616 11.1 3.73911V1.99998C11.1 1.50292 11.5029 1.09998 12 1.09998ZM3.97231 3.97228C4.32378 3.6208 4.89363 3.6208 5.2451 3.97228L6.54945 5.27662C6.90092 5.62809 6.90092 6.19794 6.54945 6.54942C6.19797 6.90089 5.62813 6.90089 5.27665 6.54942L3.97231 5.24507C3.62083 4.8936 3.62083 4.32375 3.97231 3.97228ZM20.0277 3.97228C20.3792 4.32375 20.3792 4.8936 20.0277 5.24507L18.7234 6.54942C18.3719 6.90089 17.802 6.90089 17.4506 6.54942C17.0991 6.19794 17.0991 5.62809 17.4506 5.27662L18.7549 3.97228C19.1064 3.6208 19.6762 3.6208 20.0277 3.97228ZM1.10001 12C1.10001 11.5029 1.50295 11.1 2.00001 11.1H3.73914C4.23619 11.1 4.63914 11.5029 4.63914 12C4.63914 12.497 4.23619 12.9 3.73914 12.9H2.00001C1.50295 12.9 1.10001 12.497 1.10001 12ZM19.3609 12C19.3609 11.5029 19.7638 11.1 20.2609 11.1H22C22.4971 11.1 22.9 11.5029 22.9 12C22.9 12.497 22.4971 12.9 22 12.9H20.2609C19.7638 12.9 19.3609 12.497 19.3609 12ZM6.54945 17.4505C6.90092 17.802 6.90092 18.3719 6.54945 18.7233L5.2451 20.0277C4.89363 20.3791 4.32378 20.3791 3.97231 20.0277C3.62083 19.6762 3.62083 19.1064 3.97231 18.7549L5.27665 17.4505C5.62813 17.0991 6.19797 17.0991 6.54945 17.4505ZM17.4506 17.4505C17.802 17.0991 18.3719 17.0991 18.7234 17.4505L20.0277 18.7549C20.3792 19.1064 20.3792 19.6762 20.0277 20.0277C19.6762 20.3791 19.1064 20.3791 18.7549 20.0277L17.4506 18.7233C17.0991 18.3719 17.0991 17.802 17.4506 17.4505ZM12 19.3608C12.4971 19.3608 12.9 19.7638 12.9 20.2608V22C12.9 22.497 12.4971 22.9 12 22.9C11.5029 22.9 11.1 22.497 11.1 22V20.2608C11.1 19.7638 11.5029 19.3608 12 19.3608Z" fill="#007AFF"/>
</svg>

<svg xmlns="http://www.w3.org/2000/svg" width="24" height="24" fill="none"><path fill="currentColor" fill-rule="evenodd" d="M12 15.45a3.45 3.45 0 1 0 0-6.9 3.45 3.45 0 0 0 0 6.9m0 1.8a5.25 5.25 0 1 0 0-10.5 5.25 5.25 0 0 0 0 10.5M12 1.1a.9.9 0 0 1 .9.9v1.74a.9.9 0 1 1-1.8 0V2a.9.9 0 0 1 .9-.9M3.972 3.972a.9.9 0 0 1 1.273 0L6.55 5.277a.9.9 0 0 1-1.272 1.272L3.972 5.245a.9.9 0 0 1 0-1.273m16.056 0a.9.9 0 0 1 0 1.273L18.723 6.55a.9.9 0 0 1-1.272-1.272l1.304-1.305a.9.9 0 0 1 1.273 0M1.1 12a.9.9 0 0 1 .9-.9h1.74a.9.9 0 1 1 0 1.8H2a.9.9 0 0 1-.9-.9m18.26 0a.9.9 0 0 1 .9-.9H22a.9.9 0 1 1 0 1.8h-1.74a.9.9 0 0 1-.9-.9M6.55 17.45a.9.9 0 0 1 0 1.273l-1.305 1.305a.9.9 0 0 1-1.273-1.273l1.305-1.304a.9.9 0 0 1 1.272 0m10.9 0a.9.9 0 0 1 1.273 0l1.305 1.305a.9.9 0 1 1-1.273 1.273l-1.304-1.305a.9.9 0 0 1 0-1.272M12 19.36a.9.9 0 0 1 .9.9V22a.9.9 0 0 1-1.8 0v-1.74a.9.9 0 0 1 .9-.9" clip-rule="evenodd"/></svg>
